X:14003
T:Nellie the Elephant
R:Jig
C:Butler/Hart 1957
O:USA
M:6/8
L:1/8
Q:1/8=200
K:G
"G"Bcd BAG|B2B d2d|"C"e2e gfe|"G"d3 B3|
"D7"c2c AAA|"G"ddd B3|1"D/A"f3 "A"e3|"D"d3 "D7"cBA:|2"C"e3 "D"F3|"G"G3-G2G||
"C"Gce g2e|"G"g3 d3|"C"e3 d2c|"G"B3-B2B|
"A"A2B ^cBA|"D"d2e ffg|"A"a2g f2e|"D7"d3 cBA|
"G"Bcd BAG|B2B d2d|"C"e2e gfe|"G"d3 B3|
"D7"c2c AAA|"G"ddd B3|"C"e3 "D"F3|"G"G3-G2G|]

